X:30
T:Centennial Hornpipe (Craig 30)
M:C
L:1/8
B:Empire Violin Collection of Hornpipes
H:Published by Thomas Craig
H:Music Publisher, &c.
H:George Street, Aberdeen, N.B.
Z:Peter Dunk December 2011
R:hornpipe
Q:1/4=140
K:Bb
(dc) !segno!|: B>Fd>c B>Fd>c | B>Fe>d c2(f>e) | d>fB>d c>eA>c |1B>ba>g f>ed>c :|2 B2d2B2 |!
|: A>B | c>f=e>g f2 A>B | c>f=e>g f2 A>B | c>=eg>b a>gf>e |1 f>=ef>g f2 :|2 f>=ef>g f>_ed>c !D.C.!|]

